assets/Building construction/Flat/building_construction_flat.svg

<svg width="32" height="32" viewBox="0 0 32 32" fill="none" xmlns="http://www.w3.org/2000/svg">
<path d="M28 15H28.4957C28.7781 15 29 14.7745 29 14.5C29 14.2255 28.768 14 28.4856 14H15.5144C15.232 14 15 14.2255 15 14.5C15 14.7745 15.232 15 15.5144 15H16V18H15.5144C15.232 18 15 18.2255 15 18.5C15 18.7745 15.232 19 15.5144 19H28.4856C28.768 19 29 18.7745 29 18.5C29 18.2255 28.768 18 28.4856 18H28V15Z" fill="#F8312F"/>
<path d="M28.01 28H3.99C2.89 28 2 28.8945 2 30H30C30 28.8945 29.11 28 28.01 28Z" fill="#F8312F"/>
<path d="M23.98 11.0299C23.98 12.1299 23.08 13.0299 21.98 13.0299C20.88 13.0299 19.98 12.1299 19.98 11.0299C19.98 10.7499 20.21 10.5299 20.48 10.5299C20.76 10.5299 20.98 10.7499 20.98 11.0299C20.98 11.5799 21.43 12.0299 21.98 12.0299C22.53 12.0299 22.98 11.5799 22.98 11.0299C22.98 10.4799 22.55 10.0399 22 10.0299C21.83 10.0299 21.67 9.93987 21.58 9.79987C21.52 9.71987 21.49 9.62987 21.49 9.52987C21.49 9.48987 21.49 9.45986 21.5 9.41986V4.35986C21.5 4.08986 21.73 3.85986 22 3.85986C22.28 3.85986 22.5 4.08986 22.5 4.35986V9.08987C23.35 9.31987 23.98 10.1099 23.98 11.0299Z" fill="#9B9B9B"/>
<path d="M23.0909 4H20.9091C20.404 4 20 4.44445 20 5C20 5.55556 20.404 6 20.9091 6H23.0909C23.596 6 24 5.55556 24 5C24 4.44445 23.596 4 23.0909 4Z" fill="#F8312F"/>
<path d="M28 15H16V18H28V15Z" fill="#FF6723"/>
<path d="M16.7 19.48C16.79 19.54 16.89 19.57 16.99 19.57C17.15 19.57 17.3 19.5 17.4 19.36L21.98 12.8893L26.56 19.36C26.66 19.5 26.81 19.57 26.97 19.57C27.07 19.57 27.17 19.54 27.26 19.48C27.49 19.32 27.54 19.01 27.38 18.78L22.4141 11.7641C22.3927 11.7281 22.3664 11.6944 22.3353 11.664C22.2394 11.5663 22.1109 11.516 21.98 11.5169C21.8492 11.516 21.7207 11.5663 21.6248 11.6638C21.5936 11.6943 21.5673 11.728 21.5458 11.7641L16.58 18.78C16.42 19.01 16.47 19.32 16.7 19.48Z" fill="#212121"/>
<path d="M5 3H27C27.5523 3 28 3.44772 28 4C28 4.55228 27.5523 5 27 5H14V26H14.75C15.4404 26 16 26.5596 16 27.25V28H5V27.25C5 26.5596 5.55964 26 6.25 26H7V5H5C4.44772 5 4 4.55228 4 4C4 3.44772 4.44772 3 5 3ZM8 9.19098L12.382 7H8V9.19098ZM13 26V23.809L8.61803 26H13ZM8 25.191L12.382 23H8V25.191ZM13 7.80902L8.61803 10H13V7.80902ZM8 13.191L12.382 11H8V13.191ZM13 11.809L8.61803 14H13V11.809ZM8 17.191L12.382 15H8V17.191ZM13 15.809L8.61803 18H13V15.809ZM8 21.191L12.382 19H8V21.191ZM13 19.809L8.61803 22H13V19.809Z" fill="#FFB02E"/>
</svg>

<svg xmlns="http://www.w3.org/2000/svg" width="32" height="32" fill="none"><path fill="#F8312F" d="M28 15h.496a.5.5 0 0 0 .504-.5.51.51 0 0 0-.514-.5H15.514a.51.51 0 0 0-.514.5c0 .274.232.5.514.5H16v3h-.486a.51.51 0 0 0-.514.5c0 .274.232.5.514.5h12.972a.51.51 0 0 0 .514-.5.51.51 0 0 0-.514-.5H28v-3ZM28.01 28H3.99C2.89 28 2 28.895 2 30h28c0-1.105-.89-2-1.99-2Z"/><path fill="#9B9B9B" d="M23.98 11.03c0 1.1-.9 2-2 2s-2-.9-2-2c0-.28.23-.5.5-.5.28 0 .5.22.5.5 0 .55.45 1 1 1s1-.45 1-1-.43-.99-.98-1c-.17 0-.33-.09-.42-.23a.439.439 0 0 1-.09-.27c0-.04 0-.07.01-.11V4.36c0-.27.23-.5.5-.5.28 0 .5.23.5.5v4.73c.85.23 1.48 1.02 1.48 1.94Z"/><path fill="#F8312F" d="M23.09 4h-2.18c-.506 0-.91.444-.91 1s.404 1 .91 1h2.18c.506 0 .91-.444.91-1s-.404-1-.91-1Z"/><path fill="#FF6723" d="M28 15H16v3h12v-3Z"/><path fill="#212121" d="M16.7 19.48c.09.06.19.09.29.09.16 0 .31-.07.41-.21l4.58-6.47 4.58 6.47c.1.14.25.21.41.21a.499.499 0 0 0 .41-.79l-4.966-7.016a.49.49 0 0 0-.079-.1.491.491 0 0 0-.355-.147c-.13-.001-.26.05-.355.147a.492.492 0 0 0-.08.1L16.58 18.78c-.16.23-.11.54.12.7Z"/><path fill="#FFB02E" d="M5 3h22a1 1 0 1 1 0 2H14v21h.75c.69 0 1.25.56 1.25 1.25V28H5v-.75c0-.69.56-1.25 1.25-1.25H7V5H5a1 1 0 0 1 0-2Zm3 6.191L12.382 7H8v2.191ZM13 26v-2.191L8.618 26H13Zm-5-.809L12.382 23H8v2.191Zm5-17.382L8.618 10H13V7.809Zm-5 5.382L12.382 11H8v2.191Zm5-1.382L8.618 14H13v-2.191Zm-5 5.382L12.382 15H8v2.191Zm5-1.382L8.618 18H13v-2.191Zm-5 5.382L12.382 19H8v2.191Zm5-1.382L8.618 22H13v-2.191Z"/></svg>
